X: 1
T: Put Me In a Box
T: Put Me In the Big Chest
T: Cuir's \'a Christe Mh\'oir M\'i
O: from E.Baker, K.Dunley, B.McO.
R: reel
Z: 2014 John Chambers <jc:trillian.mit.edu>
S: BSFC collection
S: page from Concord Slow Scottish Session collection of unknown origin
M: C|
L: 1/8
K: A
   F | "A"EFAB c2cf | "A7"ecBA "D"F2AF | "A"EFAB "F#m"cBcf | "E7"ecBc "A"A2A :|
|: c | "A"efec eAAc | "A"efec "E7"BABc | "A"efec   "D"efaf | "E7"ecBc "A"A2A :|
|: F | "A"EFAB c2cB | "A7"c2cB "D"cef2 | "A"EFAB "F#m"cBcf | "E7"ecBc "A"A2A :|
|: c | "A"efec eAAc | "A"efec "E7"BABc | "A"efec   "D"efaf | "E7"ecBc "A"A2A :|
